svg/old_time_camera.svg

<svg xmlns="http://www.w3.org/2000/svg" viewBox="0 0 32 32" enable-background="new 0 0 32 32"><path d="M 11.5 6 L 11.1875 6.40625 L 10 8 L 9 8 L 9 7 L 5 7 L 5 8 L 4 8 L 3 8 L 3 9 L 3 25 L 3 26 L 4 26 L 28 26 L 29 26 L 29 25 L 29 9 L 29 8 L 28 8 L 22 8 L 20.8125 6.40625 L 20.5 6 L 20 6 L 12 6 L 11.5 6 z M 12.5 8 L 19.5 8 L 20.6875 9.59375 L 21 10 L 21.5 10 L 27 10 L 27 14 L 21.1875 14 C 20.145157 12.215521 18.206267 11 16 11 C 13.793733 11 11.854843 12.215521 10.8125 14 L 5 14 L 5 10 L 10.5 10 L 11 10 L 11.3125 9.59375 L 12.5 8 z M 23 11 L 23 13 L 25 13 L 25 11 L 23 11 z M 16 13 C 18.220984 13 20 14.779016 20 17 C 20 19.220984 18.220984 21 16 21 C 13.779016 21 12 19.220984 12 17 C 12 14.779016 13.779016 13 16 13 z M 5 16 L 10.09375 16 C 10.039802 16.322086 10 16.663121 10 17 C 10 20.301864 12.698136 23 16 23 C 19.301864 23 22 20.301864 22 17 C 22 16.663121 21.960198 16.322086 21.90625 16 L 27 16 L 27 24 L 5 24 L 5 16 z"/></svg>

<svg xmlns="http://www.w3.org/2000/svg" viewBox="0 0 32 32"><path d="M11.5 6l-.313.406L10 8H9V7H5v1H3v18h26V8h-7l-1.188-1.594L20.5 6h-9zm1 2h7l1.188 1.594L21 10h6v4h-5.813c-1.042-1.784-2.98-3-5.187-3-2.206 0-4.145 1.216-5.188 3H5v-4h6l.313-.406L12.5 8zM23 11v2h2v-2h-2zm-7 2c2.22 0 4 1.78 4 4 0 2.22-1.78 4-4 4-2.22 0-4-1.78-4-4 0-2.22 1.78-4 4-4zM5 16h5.094c-.054.322-.094.663-.094 1 0 3.302 2.698 6 6 6s6-2.698 6-6c0-.337-.04-.678-.094-1H27v8H5v-8z"/></svg>
